icons-rebrand/svg/apps-light.svg

<svg xmlns="http://www.w3.org/2000/svg" width="32" height="32" viewBox="0 0 32 32"><path d="M12 3.5H6C5.3372 3.50079 4.70178 3.76444 4.23311 4.23311C3.76444 4.70178 3.50079 5.3372 3.5 6V12C3.50079 12.6628 3.76444 13.2982 4.23311 13.7669C4.70178 14.2356 5.3372 14.4992 6 14.5H12C12.6628 14.4992 13.2982 14.2356 13.7669 13.7669C14.2356 13.2982 14.4992 12.6628 14.5 12V6C14.4992 5.3372 14.2356 4.70178 13.7669 4.23311C13.2982 3.76444 12.6628 3.50079 12 3.5ZM13.5 12C13.4995 12.3977 13.3413 12.7789 13.0601 13.0601C12.7789 13.3413 12.3977 13.4995 12 13.5H6C5.60234 13.4995 5.22111 13.3413 4.93992 13.0601C4.65873 12.7789 4.50053 12.3977 4.5 12V6C4.50053 5.60234 4.65873 5.22111 4.93992 4.93992C5.22111 4.65873 5.60234 4.50053 6 4.5H12C12.3977 4.50053 12.7789 4.65873 13.0601 4.93992C13.3413 5.22111 13.4995 5.60234 13.5 6V12ZM26 3.5H20C19.3372 3.50079 18.7018 3.76444 18.2331 4.23311C17.7644 4.70178 17.5008 5.3372 17.5 6V12C17.5008 12.6628 17.7644 13.2982 18.2331 13.7669C18.7018 14.2356 19.3372 14.4992 20 14.5H26C26.6628 14.4992 27.2982 14.2356 27.7669 13.7669C28.2356 13.2982 28.4992 12.6628 28.5 12V6C28.4992 5.3372 28.2356 4.70178 27.7669 4.23311C27.2982 3.76444 26.6628 3.50079 26 3.5ZM27.5 12C27.4995 12.3977 27.3413 12.7789 27.0601 13.0601C26.7789 13.3413 26.3977 13.4995 26 13.5H20C19.6023 13.4995 19.2211 13.3413 18.9399 13.0601C18.6587 12.7789 18.5005 12.3977 18.5 12V6C18.5005 5.60234 18.6587 5.22111 18.9399 4.93992C19.2211 4.65873 19.6023 4.50053 20 4.5H26C26.3977 4.50053 26.7789 4.65873 27.0601 4.93992C27.3413 5.22111 27.4995 5.60234 27.5 6V12ZM23 17.5C21.9122 17.5 20.8488 17.8226 19.9444 18.4269C19.0399 19.0313 18.3349 19.8902 17.9187 20.8952C17.5024 21.9002 17.3935 23.0061 17.6057 24.073C17.8179 25.1399 18.3417 26.1199 19.1109 26.8891C19.8801 27.6583 20.8601 28.1821 21.927 28.3943C22.9939 28.6065 24.0998 28.4976 25.1048 28.0813C26.1098 27.6651 26.9687 26.9601 27.5731 26.0556C28.1774 25.1512 28.5 24.0878 28.5 23C28.4984 21.5418 27.9184 20.1438 26.8873 19.1127C25.8562 18.0816 24.4582 17.5016 23 17.5ZM23 27.5C21.8065 27.5 20.6619 27.0259 19.818 26.182C18.9741 25.3381 18.5 24.1935 18.5 23C18.5 21.8065 18.9741 20.6619 19.818 19.818C20.6619 18.9741 21.8065 18.5 23 18.5C24.1935 18.5 25.3381 18.9741 26.182 19.818C27.0259 20.6619 27.5 21.8065 27.5 23C27.5 24.1935 27.0259 25.3381 26.182 26.182C25.3381 27.0259 24.1935 27.5 23 27.5ZM12 17.5H6C5.3372 17.5008 4.70178 17.7644 4.23311 18.2331C3.76444 18.7018 3.50079 19.3372 3.5 20V26C3.50079 26.6628 3.76444 27.2982 4.23311 27.7669C4.70178 28.2356 5.3372 28.4992 6 28.5H12C12.6628 28.4992 13.2982 28.2356 13.7669 27.7669C14.2356 27.2982 14.4992 26.6628 14.5 26V20C14.4992 19.3372 14.2356 18.7018 13.7669 18.2331C13.2982 17.7644 12.6628 17.5008 12 17.5ZM13.5 26C13.4995 26.3977 13.3413 26.7789 13.0601 27.0601C12.7789 27.3413 12.3977 27.4995 12 27.5H6C5.60234 27.4995 5.22111 27.3413 4.93992 27.0601C4.65873 26.7789 4.50053 26.3977 4.5 26V20C4.50053 19.6023 4.65873 19.2211 4.93992 18.9399C5.22111 18.6587 5.60234 18.5005 6 18.5H12C12.3977 18.5005 12.7789 18.6587 13.0601 18.9399C13.3413 19.2211 13.4995 19.6023 13.5 20V26Z"/></svg>

<svg width="32" height="32" fill="none" xmlns="http://www.w3.org/2000/svg"><path d="M12 17.5H6c-.66 0-1.3.26-1.77.73S3.5 19.34 3.5 20v6c0 .66.26 1.3.73 1.77s1.11.73 1.77.73h6c.66 0 1.3-.26 1.77-.73s.73-1.11.73-1.77v-6c0-.66-.26-1.3-.73-1.77s-1.11-.73-1.77-.73zm1.5 8.5c0 .4-.16.78-.44 1.06s-.66.44-1.06.44H6c-.4 0-.78-.16-1.06-.44S4.5 26.4 4.5 26v-6c0-.4.16-.78.44-1.06S5.6 18.5 6 18.5h6c.4 0 .78.16 1.06.44s.44.66.44 1.06v6zM26 17.5h-6c-.66 0-1.3.26-1.77.73s-.73 1.11-.73 1.77v6c0 .66.26 1.3.73 1.77s1.11.73 1.77.73h6c.66 0 1.3-.26 1.77-.73s.73-1.11.73-1.77v-6c0-.66-.26-1.3-.73-1.77s-1.11-.73-1.77-.73zm1.5 8.5c0 .4-.16.78-.44 1.06s-.66.44-1.06.44h-6c-.4 0-.78-.16-1.06-.44s-.44-.66-.44-1.06v-6c0-.4.16-.78.44-1.06s.66-.44 1.06-.44h6c.4 0 .78.16 1.06.44s.44.66.44 1.06v6zM12 3.5H6c-.66 0-1.3.26-1.77.73S3.5 5.34 3.5 6v6c0 .66.26 1.3.73 1.77s1.11.73 1.77.73h6c.66 0 1.3-.26 1.77-.73s.73-1.11.73-1.77V6c0-.66-.26-1.3-.73-1.77S12.66 3.5 12 3.5zm1.5 8.5c0 .4-.16.78-.44 1.06s-.66.44-1.06.44H6c-.4 0-.78-.16-1.06-.44S4.5 12.4 4.5 12V6c0-.4.16-.78.44-1.06S5.6 4.5 6 4.5h6c.4 0 .78.16 1.06.44s.44.66.44 1.06v6zM18.5 9.5h4v4c0 .28.22.5.5.5s.5-.22.5-.5v-4h4c.28 0 .5-.22.5-.5s-.22-.5-.5-.5h-4v-4c0-.28-.22-.5-.5-.5-.27 0-.5.22-.5.5v4h-4c-.28 0-.5.22-.5.5s.23.5.5.5z" fill="#0F0F0F"/></svg>
